!!!COM: Claude Goudimel
!!!OMD: Psalm 79: Les gens entrez sont en ton
**kern	**kern	**kern	**kern
*part4	*part3	*part2	*part1
*staff4	*staff3	*staff2	*staff1
*clefF4	*clefGv2	*clefG2	*clefG2
*k[f#]	*k[f#]	*k[f#]	*k[f#]
!!LO:TX:omd:t=
*M4/4	*M4/4	*M4/4	*M4/4
=1	=1	=1	=1
2D	2A	2d	2d
2C	2c	2e	2g
=2	=2	=2	=2
2AA	2c	2e	2a
2GG	2d	2g	2b
=3	=3	=3	=3
2GG	2d	2g	2b
4GG	4d	4g	4b
4GG	4d	4g	4b
=4	=4	=4	=4
4D	4d	4f#	4a
4AA	4e	4a	4cc
2E	2e	2g#X	2b
=5	=5	=5	=5
2AA	2c#X	2a	2a
2r	2r	2r	2r
=6	=6	=6	=6
2D	2F#	2A	2d
4C	4cn	4e	4g
4AA	4c	4e	4a
=7	=7	=7	=7
2GG	2d	2g	2b
2C	2e	2g	2cc
=8	=8	=8	=8
4GG	4d	4g	4b
4D	4d	4f#	4a
4G	4d	4g	4b
4E	4G	4g	4cc
=9	=9	=9	=9
2D	2A	2f#	2dd
4GG	4G	4d	4b
4GG	4d	4g	4b
=10	=10	=10	=10
4D	4d	4g	4a
4D	4d	4f#	4a
2GG	2B	2g	2g
=11	=11	=11	=11
2GG	2B	2d	2g
4GG	4B	4d	4g
4D	4A	4d	4f#
=12	=12	=12	=12
4C	4c	4e	4g
4D	4A	2d	4f#
2AA	2A	.	2e
.	.	4c#X	.
=13	=13	=13	=13
2D	2A	2d	2d
2r	2r	2r	2r
=14	=14	=14	=14
2GG	2B	2d	2g
4C	4c	4e	4g
4D	4A	4d	4f#
=15	=15	=15	=15
2GG	2B	2d	2g
2GG	2G	2B	2d
=16	=16	=16	=16
4C	4G	4c	4e
4E	4E	4B	4g
4D	4F#	4d	4a
4GG	[4G	4d	4b
=17	=17	=17	=17
2D	4G]	2d	2a
.	4F#	.	.
2GG	2G	2d	2g
=18	=18	=18	=18
2r	2r	2r	2r
2GG	2G	2d	2d
=19	=19	=19	=19
4GG	4B	4d	4g
4D	2A	4d	4f#
2E	.	2B	2g
.	[4G	.	.
=20	=20	=20	=20
2D	4G]	2d	2a
.	4F#	.	.
2GG	2G	2d	2b
=21	=21	=21	=21
2r	2r	2r	2r
2GG	2G	2d	2d
=22	=22	=22	=22
4GG	4B	4d	4g
4D	2A	4d	4f#
2E	.	2B	2g
.	[4G	.	.
=23	=23	=23	=23
2D	4G]	2d	2a
.	4F#	.	.
2GG	2G	2d	2b
=24	=24	=24	=24
2r	2r	2r	2r
2G	2d	2g	2b
=25	=25	=25	=25
4E	4e	4g	4b
4G	4d	4g	4b
4D	4d	4f#	4a
4C	4e	4g	4cc
=26	=26	=26	=26
2G	2d	2g	2b
2D	2d	2f#	2a
=27	=27	=27	=27
2r	2r	2r	2r
2GG	2B	2g	2dd
=28	=28	=28	=28
4C	4e	4g	4cc
4GG	4d	4g	4b
2D	2d	2f#	2a
=29	=29	=29	=29
2C	2G	2e	2cc
2GG	2G	2d	2b
=30	=30	=30	=30
2r	2r	2r	2r
2GG	2d	2g	2b
=31	=31	=31	=31
4D	4d	4f#	4a
4E	4B	4e	4g
4BB	4B	4d	4f#
4C	4G	4c	4e
=32	=32	=32	=32
2GG	2G	2B	2d
2r	2r	2r	2r
=33	=33	=33	=33
2GG	2B	2G	2d
4C	4c	4G	4e
4GG	4B	4d	4g
=34	=34	=34	=34
4D	4A	4d	4a
4GG	2G	4d	4b
2D	.	2d	2a
.	4F#	.	.
=35	=35	=35	=35
1GG	1G	1d	1g
==	==	==	==
*-	*-	*-	*-
!!!software: music21 v.9.7.1
!!!software: music21 v.8.3.0
!!!RDF**kern: > = above
!!!RDF**kern: < = below
